X: 15661
T: Gold In Every Pocket But Mine Own
R: hornpipe
M: 4/4
K: Dmajor
Bc|:df d2 BcdB|A2 F2 D2 DE|FA F2 FEDE|F A2 A AFAc|
df d2 BcdB|A2 F2 D2 DE|FA F2 ED E2|1 D4 D2 Bc:|2 D4 D3 e||
f2 d2 ef g2|a2 f2 d2 e2|fd f2 fd f2|ec A2 A4|
f2 d2 efgg|a2 f2 d2 e2|fa f2 ed e2|1 d4 d3 e:|2 d4 d4||

